src/assets/icons/file-word.svg

<svg width="14" height="14" viewBox="0 0 14 14" fill="none" xmlns="http://www.w3.org/2000/svg">
<g id="file-word">
<path id="Vector" fill-rule="evenodd" clip-rule="evenodd" d="M1.59998 2.2C1.59998 0.988629 2.5886 0 3.79998 0H7.39998C7.55911 0 7.71172 0.0632141 7.82424 0.175736L12.2242 4.57574C12.3368 4.68826 12.4 4.84087 12.4 5V11.8C12.4 13.0114 11.4113 14 10.2 14H3.79998C2.5886 14 1.59998 13.0114 1.59998 11.8V2.2ZM3.79998 1.2C3.25135 1.2 2.79998 1.65137 2.79998 2.2V11.8C2.79998 12.3486 3.25135 12.8 3.79998 12.8H10.2C10.7486 12.8 11.2 12.3486 11.2 11.8V5.6H7.39998C7.0686 5.6 6.79998 5.33137 6.79998 5V1.2H3.79998ZM7.99998 2.04853L10.3514 4.4H7.99998V2.04853ZM4.77467 7.22759C4.67945 6.9102 4.34496 6.73009 4.02757 6.8253C3.71017 6.92052 3.53006 7.25501 3.62528 7.57241L4.82528 11.5724C4.89859 11.8168 5.1184 11.9881 5.37327 11.9994C5.62814 12.0108 5.86231 11.8597 5.95706 11.6228L6.99998 9.01555L8.04289 11.6228C8.13764 11.8597 8.37182 12.0108 8.62668 11.9994C8.88155 11.9881 9.10136 11.8168 9.17467 11.5724L10.3747 7.57241C10.4699 7.25501 10.2898 6.92052 9.97238 6.8253C9.65499 6.73009 9.3205 6.9102 9.22528 7.22759L8.51897 9.58195L7.55706 7.17717C7.46594 6.94937 7.24532 6.8 6.99998 6.8C6.75463 6.8 6.53401 6.94937 6.44289 7.17717L5.48098 9.58195L4.77467 7.22759Z" fill="black"/>
</g>
</svg>

<svg xmlns="http://www.w3.org/2000/svg" fill="none" viewBox="0 0 14 14"><path fill="#000" fill-rule="evenodd" d="M1.6 2.2C1.6.989 2.589 0 3.8 0h3.6a.6.6 0 0 1 .424.176l4.4 4.4A.6.6 0 0 1 12.4 5v6.8c0 1.211-.989 2.2-2.2 2.2H3.8c-1.211 0-2.2-.989-2.2-2.2zm2.2-1c-.549 0-1 .451-1 1v9.6c0 .549.451 1 1 1h6.4c.549 0 1-.451 1-1V5.6H7.4a.6.6 0 0 1-.6-.6V1.2zm4.2.849L10.351 4.4H8zM4.775 7.228a.6.6 0 0 0-1.15.344l1.2 4a.6.6 0 0 0 1.132.05L7 9.017l1.043 2.607a.6.6 0 0 0 1.132-.05l1.2-4a.6.6 0 0 0-1.15-.345L8.52 9.582l-.962-2.405a.6.6 0 0 0-1.114 0L5.48 9.582z" clip-rule="evenodd"/></svg>
